X: 35422
T: Roundabout, The
R: polka
M: 2/4
K: Dmajor
F2 ED|FA AB|F2 F/E/D/E/|FA, B,A,|
F2 ED|FA AB|F G/F/ E F/E/|D2 DE|
F2 ED|FA AB|F2 F/E/D/E/|FA, B,A,|
F2 ED|FA AB|F G/F/ E F/E/|D3 F|
A2 AB|AF AB|Af ed|cB A^G|
A2 BF|AF AB|A G/F/ G F/E/|D2 DF|
A2 AB|AF AB|Af ed|cB A^G|
A2 BF|AF AB|A G/F/ G F/E/|D2 FA|
d2 fe|dB Bc|dA BF|GE EA|d2 fe|
dB Bd|A G/F/ G F/E/|D2 FA|
d2 fe|dB Bc|dA BF|GE EA|
d2 fe|dB Bd|A G/F/ G F/E/|D2 D2|

